src/assets/images/IconPending.svg

<svg width="6.5602365mm" height="6.5602365mm" viewBox="0 0 12 12" fill="none" xmlns="http://www.w3.org/2000/svg">
<path d="M3.45133 1.0354C3.29204 0.849558 3.02655 0.79646 2.81416 0.929204C1.93805 1.46018 1.24779 2.20354 0.743363 3.10619C0.265487 3.95575 0 4.93805 0 6C0 7.64602 0.663717 9.15929 1.75221 10.2478C2.84071 11.3363 4.32743 12 6 12C7.64602 12 9.15929 11.3363 10.2478 10.2478C11.3363 9.15929 12 7.64602 12 6C12 4.35398 11.3363 2.84071 10.2478 1.75221C9.15929 0.663717 7.64602 0 6 0C5.73451 0 5.52212 0.212389 5.52212 0.477876C5.52212 0.743363 5.73451 0.955752 6 0.955752C7.38053 0.955752 8.65487 1.51327 9.55752 2.44248C10.4867 3.34513 11.0442 4.59292 11.0442 6C11.0442 7.38053 10.4867 8.65487 9.55752 9.55752C8.65487 10.4867 7.38053 11.0442 6 11.0442C4.59292 11.0442 3.34513 10.4867 2.41593 9.55752C1.51327 8.65487 0.955752 7.38053 0.955752 6C0.955752 5.12389 1.16814 4.27434 1.56637 3.55752C1.9115 2.9469 2.38938 2.38938 2.9469 1.9646L5.52212 5.54867L6 6.21239H6.42478H7.16814H9.63717C9.84956 6.21239 10.0619 6.02655 10.0619 5.78761C10.0619 5.54867 9.84956 5.36283 9.63717 5.36283H6.55752L6.13274 4.77876L3.45133 1.0354Z" fill="#F1C40F"/>
</svg>

<svg width="24.795" height="24.795" viewBox="0 0 12 12" fill="none" xmlns="http://www.w3.org/2000/svg"><path d="M3.451 1.035A.491.491 0 0 0 2.814.93c-.876.531-1.566 1.275-2.07 2.177A5.864 5.864 0 0 0 0 6c0 1.646.664 3.16 1.752 4.248A5.955 5.955 0 0 0 6 12c1.646 0 3.16-.664 4.248-1.752A6.001 6.001 0 0 0 12 6c0-1.646-.664-3.16-1.752-4.248A6.001 6.001 0 0 0 6 0a.476.476 0 0 0-.478.478c0 .265.213.478.478.478 1.38 0 2.655.557 3.558 1.486A4.907 4.907 0 0 1 11.044 6c0 1.38-.557 2.655-1.486 3.558A4.952 4.952 0 0 1 6 11.044a5.013 5.013 0 0 1-3.584-1.486A5.038 5.038 0 0 1 .956 6c0-.876.212-1.726.61-2.442a5.301 5.301 0 0 1 1.38-1.593l2.576 3.584.478.663h3.638a.437.437 0 0 0 .424-.424.437.437 0 0 0-.425-.425h-3.08l-.424-.584L3.45 1.035z" fill="#F1C40F"/></svg>
